src/Pure/16/symbolic/actions/builder-build-configure-symbolic.svg

<?xml version="1.0" encoding="UTF-8" standalone="no"?>
<svg
   width="16px"
   height="16px"
   version="1.1"
   viewBox="0 0 16 16"
   id="svg2"
   sodipodi:docname="builder-build-configure-symbolic.svg"
   inkscape:version="1.4.2 (ebf0e940d0, 2025-05-08)"
   xmlns:inkscape="http://www.inkscape.org/namespaces/inkscape"
   xmlns:sodipodi="http://sodipodi.sourceforge.net/DTD/sodipodi-0.dtd"
   xmlns="http://www.w3.org/2000/svg"
   xmlns:svg="http://www.w3.org/2000/svg">
  <defs
     id="defs2">
     <style id="current-color-scheme" type="text/css">
        .ColorScheme-Text { color:#363636; }
     </style>
  </defs>
  <sodipodi:namedview
     id="namedview2"
     pagecolor="#ffffff"
     bordercolor="#000000"
     borderopacity="0.25"
     inkscape:showpageshadow="2"
     inkscape:pageopacity="0.0"
     inkscape:pagecheckerboard="0"
     inkscape:deskcolor="#d1d1d1"
     inkscape:zoom="49.6875"
     inkscape:cx="8"
     inkscape:cy="8"
     inkscape:window-width="1920"
     inkscape:window-height="1010"
     inkscape:window-x="0"
     inkscape:window-y="0"
     inkscape:window-maximized="1"
     inkscape:current-layer="svg2" />
  <path
     id="path1"
     style="fill:currentColor"
     class="ColorScheme-Text"
     d="M 11.4375 7.921875 C 11.313823 7.921875 11.239576 7.9331958 11.21875 7.9414062 L 11.216797 7.9433594 L 11.214844 7.9433594 L 11.214844 7.9453125 L 11.214844 7.9472656 L 11.216797 7.9472656 C 11.22281 7.9495257 11.23923 7.9508372 11.265625 7.9492188 L 10.158203 8.0175781 L 12.189453 10.048828 C 12.574133 10.431118 12.57268 11.068025 12.1875 11.453125 L 12.183594 11.457031 L 11.46875 12.203125 C 11.08573 12.586175 10.451653 12.586298 10.064453 12.205078 L 10.0625 12.203125 L 8.0058594 10.146484 L 7.9375 11.21875 C 7.9371521 11.210754 7.9348117 11.204162 7.9335938 11.201172 L 7.9335938 11.199219 L 7.9316406 11.199219 L 7.9296875 11.199219 L 7.9296875 11.201172 L 7.9277344 11.203125 L 7.9277344 11.205078 C 7.9189678 11.22562 7.90625 11.297832 7.90625 11.421875 C 7.90625 13.358675 9.4928 14.953125 11.4375 14.953125 C 11.84786 14.953125 12.22979 14.859625 12.59375 14.734375 L 13.84375 15.953125 L 15.96875 13.828125 L 14.75 12.609375 L 14.75 12.607422 C 14.87971 12.241342 14.96875 11.827225 14.96875 11.421875 C 14.96875 9.482875 13.3836 7.921875 11.4375 7.921875 z M 12.976562 9.5429688 C 13.553083 9.9976587 13.96875 10.621175 13.96875 11.421875 C 13.96875 11.671655 13.903734 12.005338 13.808594 12.273438 L 13.808594 12.275391 L 13.597656 12.871094 L 14.554688 13.828125 L 13.835938 14.546875 L 12.851562 13.589844 L 12.269531 13.789062 C 11.965891 13.893543 11.69507 13.953125 11.4375 13.953125 C 10.65426 13.953125 10.022594 13.554094 9.5585938 12.996094 C 10.339094 13.608224 11.458081 13.627886 12.175781 12.910156 L 12.183594 12.902344 L 12.894531 12.160156 C 13.612021 11.442666 13.592253 10.322069 12.976562 9.5429688 z " />
  <path
     id="path2"
     style="fill:currentColor"
     class="ColorScheme-Text"
     d="M 8.2050781 0.25390625 C 7.0703781 0.26302605 5.7427906 0.56185437 4.4003906 1.1152344 L 4.2753906 1.1679688 L 4.1933594 1.2753906 C 4.1218724 1.3691606 3.9877756 1.5961169 4.0722656 1.8730469 L 4.078125 1.8925781 L 4.0859375 1.9121094 C 4.1815545 2.1513494 4.4653413 2.3471237 4.7382812 2.3398438 L 4.7460938 2.3398438 C 5.7054837 2.2971098 7.0193906 2.5291669 7.7128906 3.2167969 L 7.7148438 3.21875 C 7.8750538 3.37896 8.0497938 3.535805 8.1523438 3.796875 C 8.2203708 3.970065 8.1948852 4.366375 7.9257812 4.640625 L 7.9140625 4.6523438 C 7.7485125 4.8079937 7.4621556 5.0894594 7.1972656 5.3496094 L 6.8359375 5.703125 L 8.9414062 7.8085938 A 4.5 4.5 0 0 1 10.328125 7.1601562 L 10.451172 7.0449219 L 10.453125 7.0429688 C 10.588215 6.9118588 10.769521 6.86325 10.957031 6.875 C 11.108501 6.8844915 11.244351 6.9289766 11.363281 7.0097656 A 4.5 4.5 0 0 1 11.5 7 A 4.5 4.5 0 0 1 12.572266 7.1308594 C 12.518541 6.8575994 12.389392 6.5977594 12.169922 6.3808594 L 12.167969 6.3789062 L 12.164062 6.375 L 12.15625 6.3671875 C 11.83411 6.0587475 11.422201 5.9041362 11.019531 5.8789062 C 10.608171 5.8531293 10.127712 5.9653248 9.7578125 6.3242188 L 9.3007812 6.7539062 L 8.2597656 5.7128906 C 8.3838756 5.5918406 8.539975 5.4361537 8.609375 5.3710938 L 8.640625 5.3398438 C 9.188835 4.7811638 9.3161712 4.0257875 9.0820312 3.4296875 C 8.8824213 2.9214975 8.519245 2.6090888 8.421875 2.5117188 L 8.4179688 2.5078125 C 7.9411888 2.0338325 7.3413219 1.77045 6.7324219 1.59375 C 7.2261519 1.495053 7.7978906 1.2572363 8.2128906 1.2539062 C 9.1997306 1.2459764 9.904625 1.5326913 10.140625 1.7695312 L 10.148438 1.7773438 L 10.164062 1.7929688 L 10.171875 1.8007812 C 10.688285 2.2738612 11.360519 2.9737062 12.324219 3.9414062 L 12.326172 3.9433594 C 12.326874 3.9442416 12.329537 3.9463208 12.330078 3.9472656 L 12.330078 3.9492188 L 12.330078 3.9511719 L 12.330078 3.953125 C 12.332507 3.9672857 12.322897 3.9924701 12.294922 4.0605469 L 12.291016 4.0683594 L 12.277344 4.1132812 C 12.032404 4.7305212 12.181846 5.4300375 12.640625 5.8984375 L 12.677734 5.9355469 L 12.701172 5.9550781 C 12.704252 5.9578251 12.707843 5.9601759 12.710938 5.9628906 L 12.712891 5.9628906 C 13.258644 6.4406721 14.021358 6.4190315 14.636719 6.0664062 L 14.998047 6.4277344 L 15 6.4277344 L 15.001953 6.4277344 L 15.001953 6.4257812 L 15.003906 6.4257812 C 15.003468 6.4261609 15.002517 6.4272218 15.001953 6.4277344 C 15.000262 6.429272 14.999054 6.4306118 14.996094 6.4335938 L 13.796875 7.6308594 A 4.5 4.5 0 0 1 14.601562 8.2421875 L 15.705078 7.1386719 L 15.707031 7.1367188 C 16.086541 6.7534988 16.084281 6.1063625 15.710938 5.7265625 L 15.708984 5.7246094 L 15.220703 5.2363281 L 15.214844 5.2324219 C 15.138774 5.1608319 15.039999 5.0853981 14.880859 5.0488281 C 14.721719 5.0122511 14.493937 5.0509932 14.341797 5.1660156 L 14.318359 5.1816406 L 14.298828 5.2011719 C 14.037218 5.4487519 13.619699 5.4479118 13.355469 5.1992188 C 13.177639 5.0176988 13.117396 4.7510019 13.197266 4.5136719 L 13.189453 4.5234375 L 13.205078 4.4882812 L 13.207031 4.4863281 L 13.207031 4.484375 L 13.207031 4.4824219 L 13.208984 4.4804688 L 13.208984 4.4785156 L 13.208984 4.4765625 C 13.410394 3.9991525 13.281296 3.484465 13.03125 3.234375 C 12.08086 2.280105 11.419881 1.589025 10.863281 1.078125 L 10.847656 1.0625 C 10.289536 0.50252 9.3650781 0.24458625 8.2050781 0.25390625 z M 5.890625 6.6289062 L 5.5390625 6.9785156 L 0.59570312 11.904297 C 0.40468313 12.093407 0.289515 12.215518 0.203125 12.392578 C 0.127839 12.546888 0.096713125 12.744394 0.095703125 12.990234 L 0.095703125 13.005859 C 0.12597313 14.090059 1.0036406 14.967747 2.0878906 14.998047 L 2.0996094 14.998047 C 2.3448894 14.998847 2.4682844 14.909021 2.6152344 14.808594 C 2.7622044 14.708154 2.9200712 14.572116 3.1132812 14.378906 L 7.1582031 10.339844 A 4.5 4.5 0 0 1 7.9921875 8.6953125 L 5.890625 6.6289062 z M 5.8945312 8.0351562 L 6.9804688 9.1015625 L 2.40625 13.671875 C 2.24547 13.832655 2.1275337 13.926729 2.0585938 13.974609 C 1.5192537 13.928379 1.1119931 13.530739 1.0957031 12.980469 L 1.0957031 12.978516 C 1.0970254 12.880005 1.1005486 12.842593 1.1015625 12.832031 C 1.1133502 12.818356 1.1705156 12.742209 1.3007812 12.613281 L 5.8945312 8.0351562 z " />
</svg>

<svg width="16px" height="16px" version="1.1" viewBox="0 0 16 16" xmlns="http://www.w3.org/2000/svg">
 <path d="m11.438 7.9219c-0.21987 0-0.27746 0.033818-0.17188 0.027344l-1.1074 0.068359 2.0313 2.0313c0.38468 0.38229 0.38318 1.0192-2e-3 1.4043l-0.0039 0.0039-0.71484 0.74609c-0.38302 0.38305-1.0171 0.38322-1.4043 2e-3l-2e-3 -2e-3 -2.0566-2.0567-0.070312 1.1035c0.00663-0.10382-0.029297-0.04864-0.029297 0.17188 0 1.9368 1.5866 3.5312 3.5313 3.5312 0.41036 0 0.79224-0.0935 1.1562-0.21875l1.25 1.2188 2.125-2.125-1.2188-1.2188v-2e-3c0.12971-0.36608 0.21875-0.78015 0.21875-1.1855 0-1.939-1.5851-3.5-3.5312-3.5zm1.5391 1.6211c0.57652 0.45469 0.99219 1.0782 0.99219 1.8789 0 0.24978-0.06502 0.58346-0.16016 0.85156v2e-3l-0.21094 0.5957 0.95703 0.95703-0.71875 0.71875-0.98438-0.95703-0.58203 0.19922c-0.30364 0.10448-0.57446 0.16406-0.83203 0.16406-0.78324 0-1.4149-0.39903-1.8789-0.95703 0.7805 0.61213 1.8995 0.63179 2.6172-0.08594l0.0078-0.0078 0.71094-0.74219c0.71749-0.71749 0.69772-1.8381 0.08203-2.6172z" fill="#363636"/>
 <path d="m8.2051 0.25391c-1.1347 0.0091198-2.4623 0.30795-3.8047 0.86133l-0.125 0.052734-0.082031 0.10742c-0.071487 0.09377-0.20558 0.32073-0.12109 0.59766l0.0058594 0.019531 0.0078125 0.019531c0.095617 0.23924 0.3794 0.43501 0.65234 0.42773h0.0078126c0.95939-0.042734 2.2733 0.18932 2.9668 0.87695l0.0019532 0.0019531c0.16021 0.16021 0.33495 0.31705 0.4375 0.57812 0.068027 0.17319 0.042544 0.5695-0.22656 0.84375l-0.011719 0.011719c-0.16555 0.15565-0.45191 0.43712-0.7168 0.69727l-0.36133 0.35352 2.1055 2.1055a4.5 4.5 0 0 1 1.3867-0.64844l0.12305-0.11523 0.001953-0.0019531c0.13509-0.13111 0.3164-0.17972 0.50391-0.16797 0.15147 0.0094915 0.28732 0.053981 0.40625 0.13477a4.5 4.5 0 0 1 0.13672-0.0097656 4.5 4.5 0 0 1 1.0723 0.13086c-0.053725-0.27326-0.18287-0.5331-0.40234-0.75l-0.001953-0.0019532-0.003907-0.0039062-0.007812-0.0078125c-0.32214-0.30844-0.73403-0.46305-1.1367-0.48828-0.41136-0.025777-0.8918 0.086416-1.2617 0.44531l-0.45703 0.42969-1.041-1.041c0.12411-0.12105 0.28021-0.27674 0.34961-0.3418l0.03125-0.03125c0.54821-0.55868 0.67555-1.3141 0.44141-1.9102-0.19961-0.50819-0.56279-0.8206-0.66016-0.91797l-0.0039062-0.0039063c-0.47678-0.47398-1.0766-0.73736-1.6855-0.91406 0.49373-0.098697 1.0655-0.33651 1.4805-0.33984 0.98684-0.0079299 1.6917 0.27878 1.9277 0.51562l0.007813 0.0078126 0.015624 0.015625 0.007813 0.0078124c0.51641 0.47308 1.1886 1.1729 2.1523 2.1406 0.0137 0.0137 0.008003 0.028371-0.029297 0.11914l-0.003906 0.0078125-0.013672 0.044922c-0.24494 0.61724-0.095499 1.3168 0.36328 1.7852l0.037109 0.037109 0.035157 0.027344-0.041016-0.037109c0.54806 0.51582 1.3339 0.50215 1.9648 0.14062l0.36133 0.36133c0.0086-2.839e-4 0.016027-0.012253-0.001953 0.0058594l-1.1992 1.1973a4.5 4.5 0 0 1 0.80469 0.61133l1.1035-1.1035 0.001953-0.0019531c0.37951-0.38322 0.37725-1.0304 0.003907-1.4102l-0.001954-0.0019531-0.48828-0.48828-0.005859-0.0039062c-0.07607-0.07159-0.17484-0.14702-0.33398-0.18359-0.15914-0.036577-0.38692 0.0021676-0.53906 0.11719l-0.023438 0.015625-0.019531 0.019531c-0.26161 0.24758-0.67913 0.24674-0.94336-0.0019531-0.17783-0.18152-0.23807-0.44822-0.1582-0.68555l-0.007813 0.0097656 0.015625-0.035156c5.13e-4 -0.0013425 0.001431-0.0025658 0.001953-0.0039062v-0.0019531l0.001953-0.0019531v-0.0019532-0.0019531c0.20141-0.47741 0.072316-0.99211-0.17773-1.2422-0.95039-0.95427-1.6114-1.6453-2.168-2.1562l-0.015625-0.015625c-0.55812-0.55998-1.4826-0.81791-2.6426-0.80859zm-2.3145 6.375-0.35156 0.34961-4.9434 4.9258c-0.19102 0.18911-0.30619 0.31122-0.39258 0.48828-0.075286 0.15431-0.10641 0.35182-0.10742 0.59766v0.015625c0.03027 1.0842 0.90795 1.9619 1.9922 1.9922h0.011719c0.24528 8e-4 0.36867-0.089023 0.51562-0.18945 0.14697-0.10044 0.30484-0.23648 0.49805-0.42969l4.0449-4.0391a4.5 4.5 0 0 1 0.83398-1.6445l-2.1016-2.0664zm0.0039062 1.4062 1.0859 1.0664-4.5742 4.5703c-0.16078 0.16078-0.27872 0.25485-0.34766 0.30273-0.53934-0.04623-0.9466-0.44387-0.96289-0.99414v-0.001953c0.00182-0.13559 0.0085094-0.15388 0.0058594-0.14844-0.012907 0.02645 0.034223-0.053497 0.19922-0.2168l4.5938-4.5781z" fill="#363636"/>
</svg>
